images/svg/about/microsoft.svg

<svg width="145" height="31" viewBox="0 0 145 31" fill="none" xmlns="http://www.w3.org/2000/svg">
<path fill-rule="evenodd" clip-rule="evenodd" d="M15 15H0V0H15V15ZM145 14.0611V11.5398H141.856V7.62017L141.751 7.65262L138.798 8.55241L138.74 8.57002V11.54H134.08V9.88545C134.08 9.11505 134.253 8.5255 134.594 8.13233C134.932 7.74388 135.416 7.54639 136.034 7.54639C136.478 7.54639 136.937 7.65054 137.4 7.85593L137.516 7.90753V5.25227L137.461 5.2323C137.03 5.0778 136.443 5 135.715 5C134.799 5 133.965 5.19874 133.239 5.5926C132.512 5.98702 131.94 6.55008 131.54 7.26597C131.14 7.98103 130.938 8.8069 130.938 9.72083V11.5398H128.749V14.0611H130.938V24.6828H134.08V14.0611H138.74V20.811C138.74 23.591 140.056 24.9997 142.653 24.9997C143.079 24.9997 143.528 24.9499 143.987 24.8524C144.454 24.7523 144.772 24.6523 144.959 24.5455L145 24.5211V21.9765L144.872 22.0607C144.702 22.1739 144.489 22.2664 144.24 22.3352C143.99 22.4052 143.781 22.4403 143.62 22.4403C143.011 22.4403 142.561 22.2771 142.282 21.9549C142 21.6298 141.857 21.0614 141.857 20.2661V14.0611H145ZM121.732 22.4407C120.592 22.4407 119.692 22.064 119.059 21.3221C118.421 20.5764 118.098 19.5132 118.098 18.1624C118.098 16.7688 118.421 15.678 119.059 14.9191C119.693 14.1653 120.584 13.7826 121.706 13.7826C122.796 13.7826 123.663 14.1481 124.285 14.8694C124.909 15.5944 125.226 16.6764 125.226 18.0863C125.226 19.5135 124.928 20.6098 124.34 21.3432C123.757 22.071 122.879 22.4407 121.732 22.4407ZM116.736 13.1107C117.968 11.8582 119.696 11.2232 121.872 11.2232C123.921 11.2232 125.547 11.8306 126.703 13.029C127.858 14.2268 128.444 15.8944 128.444 17.9844C128.444 20.1003 127.82 21.8173 126.588 23.0857C125.357 24.3555 123.663 24.9994 121.554 24.9994C119.53 24.9994 117.894 24.3884 116.691 23.1821C115.489 21.9763 114.88 20.3211 114.88 18.2633C114.88 16.0967 115.504 14.3633 116.736 13.1107ZM109.814 11.2232C108.334 11.2232 107.109 11.6003 106.174 12.3438C105.233 13.0917 104.756 14.0726 104.756 15.2596C104.756 15.8766 104.859 16.4247 105.062 16.8896C105.266 17.356 105.581 17.7666 106.001 18.1113C106.417 18.4531 107.059 18.8112 107.91 19.1755C108.626 19.4688 109.16 19.7169 109.499 19.9125C109.83 20.1042 110.065 20.2968 110.198 20.4844C110.327 20.668 110.393 20.9193 110.393 21.2294C110.393 22.1124 109.729 22.5421 108.363 22.5421C107.856 22.5421 107.278 22.4367 106.645 22.2289C106.017 22.0243 105.423 21.7247 104.886 21.3405L104.756 21.2473V24.2605L104.803 24.2827C105.248 24.4871 105.809 24.6595 106.469 24.7952C107.129 24.9309 107.728 25 108.248 25C109.854 25 111.148 24.6211 112.091 23.8732C113.041 23.1201 113.523 22.1161 113.523 20.888C113.523 20.0021 113.263 19.2424 112.753 18.6297C112.245 18.0219 111.365 17.464 110.137 16.9708C109.159 16.5798 108.532 16.2551 108.274 16.0059C108.024 15.7651 107.898 15.4247 107.898 14.9935C107.898 14.6113 108.054 14.3051 108.375 14.0571C108.698 13.8079 109.148 13.6811 109.712 13.6811C110.235 13.6811 110.771 13.7635 111.304 13.9249C111.836 14.0863 112.304 14.3026 112.694 14.567L112.822 14.6544V11.7961L112.773 11.775C112.413 11.6212 111.938 11.4896 111.361 11.3828C110.787 11.2767 110.267 11.2232 109.814 11.2232ZM93.8913 21.3221C94.5248 22.064 95.4243 22.4407 96.5645 22.4407C97.7121 22.4407 98.5891 22.071 99.1727 21.3432C99.7602 20.6098 100.058 19.5135 100.058 18.0863C100.058 16.6764 99.7416 15.5944 99.1171 14.8694C98.4957 14.1481 97.6284 13.7826 96.5393 13.7826C95.4159 13.7826 94.5255 14.1653 93.892 14.9191C93.254 15.678 92.9312 16.7688 92.9312 18.1624C92.9312 19.5135 93.2536 20.5764 93.8913 21.3221ZM96.7046 11.2232C94.5282 11.2232 92.7999 11.8582 91.5683 13.1107C90.3369 14.3633 89.7122 16.0967 89.7122 18.2633C89.7122 20.3219 90.322 21.9763 91.5242 23.1821C92.7263 24.3884 94.3622 24.9994 96.3863 24.9994C98.4951 24.9994 100.189 24.3555 101.421 23.0857C102.652 21.8173 103.276 20.1003 103.276 17.9844C103.276 15.8944 102.691 14.2268 101.535 13.029C100.379 11.8306 98.7538 11.2232 96.7046 11.2232ZM84.9425 11.5398V13.8159H84.9755C85.2655 13.0773 85.6448 12.485 86.1696 12.0529C86.7675 11.5615 87.4655 11.3118 88.2455 11.3118C88.7629 11.3118 89.1718 11.3735 89.4608 11.4959L89.5111 11.5173V14.6341L89.3806 14.54C89.237 14.4368 88.9933 14.3388 88.6569 14.2485C88.317 14.1576 88.0032 14.1117 87.7236 14.1117C86.8988 14.1117 86.2232 14.4669 85.7162 15.1678C85.2028 15.8772 84.9425 16.8164 84.9425 17.9595V24.6826H81.8387V11.5398H84.9425ZM76.2803 11.2232C74.8563 11.2232 73.5862 11.5273 72.5059 12.1269C71.4233 12.7278 70.5861 13.5857 70.0165 14.6766C69.4494 15.7648 69.1615 17.036 69.1615 18.4537C69.1615 19.6954 69.4406 20.835 69.9924 21.8394C70.5445 22.8454 71.3259 23.6324 72.315 24.1783C73.3027 24.7235 74.4443 24.9999 75.7083 24.9999C77.1834 24.9999 78.4427 24.7061 79.4525 24.1268L79.4933 24.1035V21.2712L79.3628 21.366C78.9054 21.6979 78.3943 21.9628 77.8443 22.1536C77.2957 22.3443 76.7956 22.4407 76.357 22.4407C75.1391 22.4407 74.1614 22.0611 73.4517 21.3128C72.7405 20.5635 72.3799 19.5113 72.3799 18.1873C72.3799 16.8549 72.756 15.7757 73.4971 14.9793C74.236 14.1854 75.2155 13.7826 76.4082 13.7826C77.4284 13.7826 78.4225 14.1267 79.3631 14.8063L79.4933 14.9004V11.9161L79.4512 11.8925C79.0973 11.6951 78.6146 11.5322 78.0153 11.4086C77.4185 11.2853 76.8349 11.2232 76.2803 11.2232ZM63.9199 11.54H67.0238V24.6826H63.9199V11.54ZM65.5036 5.94111C64.9928 5.94111 64.5472 6.11433 64.1811 6.45758C63.8136 6.80179 63.6271 7.23518 63.6271 7.74665C63.6271 8.25008 63.8113 8.67556 64.1754 9.01062C64.5372 9.34472 64.9841 9.51405 65.5037 9.51405C66.0232 9.51405 66.4718 9.34472 66.8379 9.01118C67.2063 8.67556 67.3932 8.25022 67.3932 7.74665C67.3932 7.25307 67.2113 6.82412 66.8531 6.47145C66.4951 6.11946 66.0409 5.94111 65.5036 5.94111ZM57.7593 24.6826V10.5703H57.6571L52.0358 24.6826H49.7894L44.0789 10.5689H43.9767V24.6824H41V6.34344H45.5626L50.9704 19.9652L56.5428 6.34344H60.9269V24.6826H57.7593ZM16 15H31V0H16V15ZM15 31H0V16H15V31ZM16 31H31V16H16V31Z" fill="white"/>
</svg>

<svg width="145" height="31" fill="none" xmlns="http://www.w3.org/2000/svg"><path fill-rule="evenodd" clip-rule="evenodd" d="M15 15H0V0h15v15zm130-.939V11.54h-3.144V7.62l-.105.033-2.953.9-.058.017v2.97h-4.66V9.885c0-.77.173-1.36.514-1.753.338-.388.822-.586 1.44-.586.444 0 .903.105 1.366.31l.116.052V5.252l-.055-.02c-.431-.154-1.018-.232-1.746-.232-.916 0-1.75.199-2.476.593a4.22 4.22 0 0 0-1.699 1.673c-.4.715-.602 1.54-.602 2.455v1.819h-2.189v2.521h2.189v10.622h3.142V14.06h4.66v6.75c0 2.78 1.316 4.189 3.913 4.189.426 0 .875-.05 1.334-.148.467-.1.785-.2.972-.306l.041-.025v-2.544l-.128.084c-.17.113-.383.205-.632.274a2.41 2.41 0 0 1-.62.105c-.609 0-1.059-.163-1.338-.485-.282-.325-.425-.894-.425-1.689v-6.205H145zm-23.268 8.38c-1.14 0-2.04-.377-2.673-1.119-.638-.746-.961-1.809-.961-3.16 0-1.393.323-2.484.961-3.243.634-.754 1.525-1.136 2.647-1.136 1.09 0 1.957.365 2.579 1.086.624.725.941 1.807.941 3.217 0 1.428-.298 2.524-.886 3.257-.583.728-1.461 1.098-2.608 1.098zm-4.996-9.33c1.232-1.253 2.96-1.888 5.136-1.888 2.049 0 3.675.608 4.831 1.806 1.155 1.198 1.741 2.865 1.741 4.955 0 2.116-.624 3.833-1.856 5.102-1.231 1.27-2.925 1.913-5.034 1.913-2.024 0-3.66-.61-4.863-1.817-1.202-1.206-1.811-2.86-1.811-4.919 0-2.166.624-3.9 1.856-5.152zm-6.922-1.888c-1.48 0-2.705.377-3.64 1.12-.941.749-1.418 1.73-1.418 2.917 0 .617.103 1.165.306 1.63.204.466.519.877.939 1.221.416.342 1.058.7 1.909 1.064.716.294 1.25.542 1.589.738.331.191.566.384.699.571.129.184.195.435.195.745 0 .883-.664 1.313-2.03 1.313-.507 0-1.085-.105-1.718-.313a6.467 6.467 0 0 1-1.759-.889l-.13-.093v3.014l.047.022c.445.204 1.006.377 1.666.512.66.136 1.259.205 1.779.205 1.606 0 2.9-.379 3.843-1.127.95-.753 1.432-1.757 1.432-2.985 0-.886-.26-1.646-.77-2.258-.508-.608-1.388-1.166-2.616-1.66-.978-.39-1.605-.715-1.863-.964-.25-.24-.376-.581-.376-1.013 0-.382.156-.688.477-.936.323-.25.773-.376 1.337-.376a5.5 5.5 0 0 1 1.592.244c.532.161 1 .378 1.39.642l.128.087v-2.858l-.049-.021c-.36-.154-.835-.285-1.412-.392a8.64 8.64 0 0 0-1.547-.16zm-15.923 10.1c.634.741 1.533 1.118 2.673 1.118 1.148 0 2.025-.37 2.609-1.098.587-.733.885-1.83.885-3.257 0-1.41-.316-2.492-.94-3.217-.622-.72-1.49-1.086-2.579-1.086-1.123 0-2.014.382-2.647 1.136-.638.759-.96 1.85-.96 3.243 0 1.352.322 2.414.96 3.16zm2.814-10.1c-2.177 0-3.905.635-5.137 1.888-1.231 1.252-1.856 2.986-1.856 5.152 0 2.059.61 3.713 1.812 4.92 1.202 1.205 2.838 1.816 4.862 1.816 2.11 0 3.803-.643 5.035-1.913 1.231-1.269 1.855-2.986 1.855-5.102 0-2.09-.585-3.757-1.741-4.955-1.156-1.198-2.781-1.806-4.83-1.806zm-11.763.317v2.276h.034c.29-.739.669-1.331 1.194-1.763a3.189 3.189 0 0 1 2.076-.741c.517 0 .926.062 1.215.184l.05.021v3.117l-.13-.094c-.144-.103-.388-.201-.724-.291a3.656 3.656 0 0 0-.933-.137c-.825 0-1.5.355-2.008 1.056-.513.71-.773 1.648-.773 2.791v6.724h-3.104V11.54h3.103zm-8.662-.317c-1.424 0-2.694.304-3.774.904a6.1 6.1 0 0 0-2.49 2.55c-.567 1.088-.855 2.359-.855 3.777 0 1.241.28 2.381.831 3.385a5.829 5.829 0 0 0 2.323 2.34c.988.545 2.13.82 3.393.82 1.475 0 2.735-.293 3.745-.872l.04-.023V21.27l-.13.095a5.84 5.84 0 0 1-1.519.788c-.548.19-1.048.287-1.487.287-1.218 0-2.196-.38-2.905-1.128-.712-.75-1.072-1.802-1.072-3.126 0-1.332.376-2.411 1.117-3.208.739-.794 1.719-1.196 2.911-1.196 1.02 0 2.014.344 2.955 1.023l.13.094v-2.984l-.042-.024c-.354-.197-.836-.36-1.436-.483a8.61 8.61 0 0 0-1.735-.186zm-12.36.317h3.104v13.143H63.92V11.54zm1.584-5.599c-.511 0-.957.173-1.323.517a1.701 1.701 0 0 0-.554 1.289c0 .503.184.929.548 1.264.362.334.81.503 1.329.503.52 0 .968-.17 1.334-.503.368-.335.555-.76.555-1.264 0-.494-.182-.923-.54-1.276-.358-.352-.812-.53-1.35-.53zm-7.745 18.742V10.57h-.102l-5.621 14.113h-2.247l-5.71-14.114h-.102v14.113H41V6.343h4.563l5.407 13.622 5.573-13.622h4.384v18.34h-3.168zM16 15h15V0H16v15zm-1 16H0V16h15v15zm1 0h15V16H16v15z" fill="#fff"/></svg>
